supervague.svg

<svg width="2400" height="947" viewBox="0 0 2400 947" fill="none" xmlns="http://www.w3.org/2000/svg">
<g id="Vector">
<path d="M458.733 160.786C459.389 160.786 458.733 149.63 459.389 460.045H0V316.322H228.382V303.853H0V0H459.389V148.973H229.038V160.786H458.733Z" fill="#EC0000"/>
<path d="M722.035 0C746.317 0 922.854 0 945.167 0C945.167 22.3132 945.167 418.044 945.167 458.733H886.103L884.79 459.389C884.79 460.045 890.697 459.389 546.811 459.389C546.811 459.389 546.811 460.045 545.499 458.733H486.435C486.435 -160.786 486.435 58.4081 486.435 0C508.748 0 685.284 0 709.566 0V229.695H722.035V0Z" fill="#EC0000"/>
<path d="M972.228 0C1005.7 0 1412.59 0 1431.62 0C1431.62 171.943 1431.62 189.006 1431.62 361.605H1201.92C1201.92 389.168 1201.92 429.857 1201.92 459.389H972.228C972.228 302.541 972.228 91.8778 972.228 0Z" fill="#EC0000"/>
<path d="M1454.82 460.045V0H1913.55V148.973H1683.86V160.786H1913.55V305.166H1683.86V317.635H1913.55V460.045H1454.82Z" fill="#EC0000"/>
<path d="M1940.61 0C1974.08 0 2380.97 0 2400 0C2400 171.943 2400 133.223 2400 305.166H2170.31C2170.31 333.385 2170.31 429.857 2170.31 459.389H1940.61C1940.61 302.541 1940.61 91.8778 1940.61 0ZM2182.77 458.733V319.604H2400V458.733H2182.77Z" fill="#EC0000"/>
<path d="M1690.55 485.64C1714.83 485.64 1891.37 485.64 1913.68 485.64C1913.68 507.953 1913.68 903.684 1913.68 944.373H1854.62L1853.31 945.029C1853.31 945.685 1859.21 945.029 1515.33 945.029C1515.33 945.029 1515.33 945.685 1514.01 944.373H1454.95C1454.95 324.854 1454.95 544.048 1454.95 485.64C1477.26 485.64 1653.8 485.64 1678.08 485.64V715.334H1690.55V485.64Z" fill="#EC0000"/>
<path d="M1940.74 945.685V485.64H2399.48V634.613H2169.78V646.426H2399.48V790.805H2169.78V803.275H2399.48V945.685H1940.74Z" fill="#EC0000"/>
<path d="M236.257 487.929C260.539 487.929 437.076 487.929 459.389 487.929C459.389 510.243 459.389 776.979 459.389 817.668L332.073 946.006L330.76 946.662C330.76 947.318 332.072 946.006 123.379 946.006C123.379 946.006 123.379 946.662 122.066 945.35L0.656201 817.668C0.656309 198.149 0.656402 546.337 0.656412 487.929C22.9696 487.929 199.506 487.929 223.788 487.929L223.788 769.149H236.257L236.257 487.929Z" fill="#EC0000"/>
<path d="M969.311 945.685V485.64H1428.7V628.05C1395.23 628.05 1212.13 628.05 1191.13 628.05L1189.16 803.275H1200.97L1202.94 640.52H1428.7V945.685H969.311Z" fill="#EC0000"/>
<path fill-rule="evenodd" clip-rule="evenodd" d="M485 946.916H708.132V811.725H720.601V946.916H943.733C943.733 888.508 943.733 888.873 943.733 617.177L822.323 489.496C821.01 488.184 821.01 488.84 821.01 488.84C619.536 488.84 613.789 487.617 613.633 488.123C613.627 488.141 613.629 488.161 613.629 488.184L612.316 488.84L485 617.178L485 946.916ZM721.257 670.992H708.132V740.556H721.257V670.992Z" fill="#EC0000"/>
</g>
</svg>

<?xml version="1.0" encoding="UTF-8"?>
<svg id="Layer_1" data-name="Layer 1" xmlns="http://www.w3.org/2000/svg" version="1.1" viewBox="0 0 2400 947">
  <defs>
    <style>
      .cls-1 {
        fill-rule: evenodd;
      }

      .cls-1, .cls-2 {
        fill: #ec0000;
        stroke-width: 0px;
      }
    </style>
  </defs>
  <g id="Vector">
    <path class="cls-2" d="M458.7,160.8c.7,0,0-11.2.7,299.3H0v-143.7h228.4v-12.5H0V0h459.4v149h-230.4v11.8h229.7Z"/>
    <path class="cls-2" d="M722,0h223.1v458.7h-59.1l-1.3.7c0,.7,5.9,0-338,0,0,0,0,.7-1.3-.7h-59.1c0-619.5,0-400.3,0-458.7h223.1v229.7h12.5V0Z"/>
    <path class="cls-2" d="M972.2,0h459.4v361.6h-229.7v97.8h-229.7V0Z"/>
    <path class="cls-2" d="M1454.8,460V0h458.7v149h-229.7v11.8h229.7v144.4h-229.7v12.5h229.7v142.4h-458.7Z"/>
    <path class="cls-2" d="M1940.6,0h459.4v305.2h-229.7v154.2h-229.7V0ZM2182.8,458.7v-139.1h217.2v139.1h-217.2Z"/>
    <path class="cls-2" d="M1690.6,485.6h223.1v458.7h-59.1l-1.3.7c0,.7,5.9,0-338,0,0,0,0,.7-1.3-.7h-59.1c0-619.5,0-400.3,0-458.7h223.1v229.7h12.5v-229.7Z"/>
    <path class="cls-2" d="M1940.7,945.7v-460h458.7v149h-229.7v11.8h229.7v144.4h-229.7v12.5h229.7v142.4h-458.7Z"/>
    <path class="cls-2" d="M236.3,487.9h223.1v329.7l-127.3,128.3-1.3.7c0,.7,1.3-.7-207.4-.7,0,0,0,.7-1.3-.7L.7,817.7c0-619.5,0-271.3,0-329.7h223.1v281.2h12.5v-281.2Z"/>
    <path class="cls-2" d="M969.3,945.7v-460h459.4v142.4h-237.6l-2,175.2h11.8l2-162.8h225.8v305.2h-459.4Z"/>
    <path class="cls-1" d="M485,946.9h223.1v-135.2h12.5v135.2h223.1v-329.7l-121.4-127.7c-1.3-1.3-1.3-.7-1.3-.7-201.5,0-207.2-1.2-207.4-.7,0,0,0,0,0,0l-1.3.7-127.3,128.3v329.7ZM721.3,671h-13.1v69.6h13.1v-69.6Z"/>
  </g>
</svg>
